X:1
T:Victory Ahead
T:Victory Ahead
T:William Grum
T:William Grum, 1905
T:Public Domain Courtesy of the Cyber Hymnal™
T:Public Domain Courtesy of the Cyber Hymnal™
C:William Grum
Z:Public Domain
Z:Courtesy of the Cyber Hymnal™
%%score ( 1 2 ) ( 3 4 )
L:1/8
Q:1/4=105
M:4/4
K:D
V:1 treble 
V:2 treble 
V:3 bass 
V:4 bass 
V:1
 [FA]>[^E^G] [FA]>[=GB] [FA]>[DF] D2 | [DG]2 [GB]2 [FA]4 | [CG]>[CG] [CE]>[CG] [DF]>[DF] D2 | %3
w: 1.~When the hosts of Is- ra- el|led by God,|Round the walls of Jer- i- cho|
w: 2.~Da- vid with a shep- herd’s sling|and five stones,|Met the gi- ant on the field|
w: 3.~Dan- iel prayed un- to the Lord|thrice each day,|Then un- to the li- on’s den|
w: 4.~Of- ten with the car- nal mind|I was tried,|Ask- ing for de- liv- er- ance|
w: 5.~When like those who’ve gone be- fore|to that land,|By death’s riv- er cold and dark|
 [DE]2 [DB]2 [CE]4 | D>D [DF]>[DE] D2 [DF]2 | [FA]>[FA] [FA]>[DF] [FA]3 [FA] | %6
w: soft- ly trod,|Trust- ing in the Lord, They|felt the con- qu’ror’s tread, By|
w: all a- lone,|Trust- ing in the Lord, he|knew what God had said, By|
w: led the way,|Trust- ing in the Lord, he|did not fear or dread, By|
w: oft I cried,|Trust- ing in the Lord, I|reck- oned I was dead, By|
w: I shall stand.|Trust- ing in the Lord, I|will not fear or dread, By|
 [GB]>[Ac] [Bd]>[GB] [FA]2 [Fd]2 | [Fd]2 [Gc]2 [Fd]4 ||"^Refrain" [FA]>[FA] [FA]>[DF] A4 | %9
w: faith they saw the vic- to-|ry a- head.||
w: faith he saw the vic- to-|ry a- head.||
w: faith he saw the vic- to-|ry a- head.|Vic- to- ry a- head,|
w: faith I see the vic- to-|ry a- head.||
w: faith I see the vic- to-|ry a- head.||
 [Gd]>[Gd] [Gd]>[GB] [Gd]4 | [FA]>[GB] [FA]>[DF] D2 [DF]2 | [DE]>[DE] [DE]>[DF] [CE]4 | %12
w: |||
w: |||
w: vic- to- ry a- head,|Through the blood of Je- sus,|vic- to- ry a- head.|
w: |||
w: |||
 D>D [DF]>[DE] D2 [DF]2 | [FA]>[FA] [FA]>[DF] [FA]3 [FA] | [GB]>[Ac] [Bd]>[GB] [FA]2 [Fd]2 | %15
w: |||
w: |||
w: Trust- ing in the Lord, I|hear the con- qu’ror’s tread, By|faith I see the vic- to-|
w: |||
w: |||
 [Fd]2 [Gc]2 [Fd]4 |] %16
w: |
w: |
w: ry a- head.|
w: |
w: |
V:2
 x6 D2 | x8 | x6 D2 | x8 | D>D x3/2 D2 x5/2 | x8 | x8 | x8 || x4 (F2 A2) | x8 | x4 D2 x2 | x8 | %12
 D>D x3/2 D2 x5/2 | x8 | x8 | x8 |] %16
V:3
 [D,D]>[D,D] [D,D]>[D,D] [D,D]>[D,A,] [D,F,]2 | [G,B,]2 [G,D]2 [D,D]4 | %2
 [A,,A,]>[A,,A,] [A,,A,]>[A,,A,] [D,A,]>[D,A,] [D,F,]2 | [E,^G,]2 [E,G,]2 [A,,A,]4 | %4
 [D,F,]>[D,F,] [D,A,]>[D,G,] [D,F,]2 [D,A,]2 | [D,D]>[D,D] [D,D]>[D,A,] [D,D]3 [D,D] | %6
 [G,D]>[G,D] [G,D]>[G,D] [A,D]2 [A,D]2 | [A,,A,]2 [A,,A,]2 [D,A,]4 || [D,D]>[D,D] [D,D]>[D,A,] D4 | %9
 [G,B,]>[G,B,] [G,B,]>[G,D] [G,B,]4 | [D,D]>[D,D] [D,D]>[D,A,] [D,F,]2 [D,A,]2 | %11
 [E,^G,]>[E,G,] [E,G,]>[E,G,] [A,,A,]4 | [D,F,]>[D,F,] [D,A,]>[D,G,] [D,F,]2 [D,A,]2 | %13
 [D,D]>[D,D] [D,D]>[D,A,] [D,D]3 [D,D] | [G,D]>[G,D] [G,D]>[G,D] [A,D]2 [A,D]2 | %15
 [A,,A,]2 [A,,A,]2 [D,A,]4 |] %16
V:4
 x8 | x8 | x8 | x8 | x8 | x8 | x8 | x8 || x4 (D,2 F,2) | x8 | x8 | x8 | x8 | x8 | x8 | x8 |] %16

